X:62
T:Daughter of Israel, The
T:Song
S:John Moore's Book 2
Z:Transcribed by Edmund Spriggs 04/2021
%%VWML: Moore1-4494-p46-0
F:http://www.vwml.org/record/Moore2/4494/p46
M:C|
L:1/8
K:F
C|A2BA G2AG|F2EF G2FG|A2 fc edBG|(F4{G/F/} E2)FG|
w:A daughter_ of_ Israel_ sat by a stream and the waters came_ mur_muring_ by_like the
A2AA =B2BB|c2=Bc d2cd|e2d/c/=B/A/ G2AB|c4z2|]
w:shadow_ that ??flits?? through the soul of a dream when the storm clouds_ have_ darkened the_ sky.
c2|_B2cB A2BA|A2GF G2AB|Acfc edBG|(F4{G/F/} E2)FG|
w: The clear light that shone in her sweet beamimg eye_ and charmed_ her as one_ of the free and
A2AA B2AB|c2fe!fermata!d3d|d2cA c2BG|(B4{c/B/} A2)FG|
w:these were the words she_ breathed with a sigh I weep land of Judah_ for thee_ and
A2AA B2AB|c2fe!fermata!d3d|d2cA c2BA|F4z2!fermata!:|
w:these were the words she_ breathed with a sigh I weep land of Judah_ for thee.

